Catalina-light/actions/22/redeyes.svg

<svg xmlns="http://www.w3.org/2000/svg" viewBox="0 0 22 22">
  <defs id="defs3051">
    <style type="text/css" id="current-color-scheme">
      .ColorScheme-NegativeText {
        color:#da4453;
      }
      </style>
  </defs>
 <path 
     style="fill:currentColor;fill-opacity:1;stroke:none"      
	 class="ColorScheme-NegativeText"
        d="M 11 4.4980469 C 9.0431507 4.4980469 7.1855073 5.0201547 5.4257812 6.0664062 C 3.6660552 7.1125192 2.2643001 8.4973186 1.2226562 10.220703 C 1.0738891 10.484102 1 10.744083 1 11 C 1 11.255917 1.0738891 11.516037 1.2226562 11.779297 C 2.2643001 13.50282 3.6660552 14.887758 5.4257812 15.933594 C 7.1855073 16.979845 9.0431507 17.501953 11 17.501953 C 12.956849 17.501953 14.81463 16.981686 16.574219 15.939453 C 18.333808 14.89722 19.7357 13.510302 20.777344 11.779297 C 20.926111 11.516037 21 11.256055 21 11 C 21 10.744083 20.926111 10.484102 20.777344 10.220703 C 19.735563 8.4973186 18.333808 7.1125192 16.574219 6.0664062 C 14.814493 5.0202933 12.956849 4.4980469 11 4.4980469 z M 6.6816406 7.015625 C 6.227805 7.7982006 6 8.6440843 6 9.5546875 C 6 10.947057 6.4884407 12.139186 7.4667969 13.128906 C 8.445153 14.118626 9.6235617 14.613281 11 14.613281 C 12.376575 14.613281 13.55471 14.118488 14.533203 13.128906 C 15.511833 12.139325 16 10.947057 16 9.5546875 C 16 8.6440843 15.772332 7.7980621 15.318359 7.015625 C 17.022195 7.8960226 18.439354 9.2239634 19.570312 11 C 18.580997 12.542843 17.341527 13.771064 15.849609 14.685547 C 14.357829 15.599753 12.741096 16.056641 11 16.056641 C 9.2589041 16.056641 7.6421714 15.599891 6.1503906 14.685547 C 4.6586098 13.771203 3.4173234 12.542843 2.4277344 11 C 3.5586933 9.2238249 4.977805 7.8960226 6.6816406 7.015625 z "
     />
</svg>

<svg viewBox="0 0 22 22" xmlns="http://www.w3.org/2000/svg">
<defs>
<style id="current-color-scheme" type="text/css">.ColorScheme-NegativeText {
        color:#da4453;
      }</style>
</defs>
<path class="ColorScheme-NegativeText" d="m11 4.498c-1.9568 0-3.8145 0.52211-5.5742 1.5684-1.7597 1.0461-3.1615 2.4309-4.2031 4.1543-0.14877 0.2634-0.22266 0.52338-0.22266 0.7793s0.073889 0.51604 0.22266 0.7793c1.0416 1.7235 2.4434 3.1085 4.2031 4.1543 1.7597 1.0463 3.6174 1.5684 5.5742 1.5684 1.9568 0 3.8146-0.52027 5.5742-1.5625s3.1615-2.4292 4.2031-4.1602c0.14877-0.26326 0.22266-0.52324 0.22266-0.7793 0-0.25592-0.073889-0.5159-0.22266-0.7793-1.0418-1.7234-2.4435-3.1082-4.2031-4.1543-1.7597-1.0461-3.6174-1.5684-5.5742-1.5684zm-4.3184 2.5176c-0.45384 0.78258-0.68164 1.6285-0.68164 2.5391 0 1.3924 0.48844 2.5845 1.4668 3.5742 0.97836 0.98972 2.1568 1.4844 3.5332 1.4844 1.3766 0 2.5547-0.49479 3.5332-1.4844 0.97863-0.98958 1.4668-2.1818 1.4668-3.5742 0-0.9106-0.22767-1.7566-0.68164-2.5391 1.7038 0.8804 3.121 2.2083 4.252 3.9844-0.98932 1.5428-2.2288 2.7711-3.7207 3.6855-1.4918 0.91421-3.1085 1.3711-4.8496 1.3711-1.7411 0-3.3578-0.45675-4.8496-1.3711s-2.7331-2.1427-3.7227-3.6855c1.131-1.7762 2.5501-3.104 4.2539-3.9844z" fill="#363636"/>
</svg>
